common/svg/credit-card-icon.svg

<svg fill="none" height="20" viewBox="0 0 20 20" width="20" xmlns="http://www.w3.org/2000/svg" xmlns:xlink="http://www.w3.org/1999/xlink"><clipPath id="a"><path d="m0 0h20v20h-20z"/></clipPath><g clip-path="url(#a)" clip-rule="evenodd" fill="#000" fill-rule="evenodd"><path d="m2.5 2.5c-1.38071 0-2.5 1.11929-2.5 2.5v10c0 1.3807 1.11929 2.5 2.5 2.5h15c1.3807 0 2.5-1.1193 2.5-2.5v-10c0-1.38071-1.1193-2.5-2.5-2.5zm-.83333 2.5c0-.46024.37309-.83333.83333-.83333h15c.4602 0 .8333.37309.8333.83333v1.75h-16.66663zm0 3.25v6.75c0 .4602.37309.8333.83333.8333h15c.4602 0 .8333-.3731.8333-.8333v-6.75z"/><path d="m12.7042 9.80809c-.3833-.22172-.8283-.34862-1.3029-.34862-1.43915 0-2.6058 1.16663-2.6058 2.60583 0 1.4391 1.16665 2.6057 2.6058 2.6057.4746 0 .9196-.1268 1.3029-.3486.3833.2217.8283.3486 1.3029.3486 1.4391 0 2.6058-1.1666 2.6058-2.6057 0-1.4392-1.1667-2.60583-2.6058-2.60583-.4746 0-.9196.1269-1.3029.34862zm-1.3029 3.86291c.1727 0 .339-.0272.4949-.0777-.3113-.4292-.4949-.9572-.4949-1.528 0-.5709.1836-1.0988.4949-1.5281-.1559-.0505-.3222-.0777-.4949-.0777-.8869 0-1.6058.7189-1.6058 1.6058 0 .8868.7189 1.6057 1.6058 1.6057zm4.2116-1.6057c0 .8868-.719 1.6057-1.6058 1.6057-.8869 0-1.6058-.7189-1.6058-1.6057 0-.8869.7189-1.6058 1.6058-1.6058.8868 0 1.6058.7189 1.6058 1.6058z"/></g></svg>

<svg width="20" height="20" viewBox="0 0 20 20" fill="none" xmlns="http://www.w3.org/2000/svg">
<g clip-path="url(#clip0_2791_2830)">
<path fill-rule="evenodd" clip-rule="evenodd" d="M2.5 2.5C1.11929 2.5 0 3.61929 0 5V15C0 16.3807 1.11929 17.5 2.5 17.5H17.5C18.8807 17.5 20 16.3807 20 15V5C20 3.61929 18.8807 2.5 17.5 2.5H2.5ZM1.66667 5C1.66667 4.53976 2.03976 4.16667 2.5 4.16667H17.5C17.9602 4.16667 18.3333 4.53976 18.3333 5V6.75H1.66667V5ZM1.66667 8.25V15C1.66667 15.4602 2.03976 15.8333 2.5 15.8333H17.5C17.9602 15.8333 18.3333 15.4602 18.3333 15V8.25H1.66667Z" fill="black"/>
<path fill-rule="evenodd" clip-rule="evenodd" d="M12.7042 9.80809C12.3209 9.58637 11.8759 9.45947 11.4013 9.45947C9.96215 9.45947 8.7955 10.6261 8.7955 12.0653C8.7955 13.5044 9.96215 14.671 11.4013 14.671C11.8759 14.671 12.3209 14.5442 12.7042 14.3224C13.0875 14.5441 13.5325 14.671 14.0071 14.671C15.4462 14.671 16.6129 13.5044 16.6129 12.0653C16.6129 10.6261 15.4462 9.45947 14.0071 9.45947C13.5325 9.45947 13.0875 9.58637 12.7042 9.80809ZM11.4013 13.671C11.574 13.671 11.7403 13.6438 11.8962 13.5933C11.5849 13.1641 11.4013 12.6361 11.4013 12.0653C11.4013 11.4944 11.5849 10.9665 11.8962 10.5372C11.7403 10.4867 11.574 10.4595 11.4013 10.4595C10.5144 10.4595 9.7955 11.1784 9.7955 12.0653C9.7955 12.9521 10.5144 13.671 11.4013 13.671ZM15.6129 12.0653C15.6129 12.9521 14.8939 13.671 14.0071 13.671C13.1202 13.671 12.4013 12.9521 12.4013 12.0653C12.4013 11.1784 13.1202 10.4595 14.0071 10.4595C14.8939 10.4595 15.6129 11.1784 15.6129 12.0653Z" fill="black"/>
</g>
<defs>
<clipPath id="clip0_2791_2830">
<rect width="20" height="20" fill="white"/>
</clipPath>
</defs>
</svg>
